Numix/22x22/categories/applications-biology.svg

<?xml version="1.0" encoding="UTF-8" standalone="no"?>
<svg
   xmlns:dc="http://purl.org/dc/elements/1.1/"
   xmlns:cc="http://creativecommons.org/ns#"
   xmlns:rdf="http://www.w3.org/1999/02/22-rdf-syntax-ns#"
   xmlns:svg="http://www.w3.org/2000/svg"
   xmlns="http://www.w3.org/2000/svg"
   xmlns:sodipodi="http://sodipodi.sourceforge.net/DTD/sodipodi-0.dtd"
   xmlns:inkscape="http://www.inkscape.org/namespaces/inkscape"
   width="22"
   height="22"
   viewBox="0 0 22 22"
   id="svg2"
   version="1.1"
   inkscape:version="0.91 r"
   sodipodi:docname="applications-biology.svg">
  <metadata
     id="metadata40">
    <rdf:RDF>
      <cc:Work
         rdf:about="">
        <dc:format>image/svg+xml</dc:format>
        <dc:type
           rdf:resource="http://purl.org/dc/dcmitype/StillImage" />
        <dc:title />
      </cc:Work>
    </rdf:RDF>
  </metadata>
  <defs
     id="defs38" />
  <sodipodi:namedview
     pagecolor="#ffffff"
     bordercolor="#666666"
     borderopacity="1"
     objecttolerance="10"
     gridtolerance="10"
     guidetolerance="10"
     inkscape:pageopacity="0"
     inkscape:pageshadow="2"
     inkscape:window-width="1920"
     inkscape:window-height="1056"
     id="namedview36"
     showgrid="false"
     inkscape:zoom="10.727273"
     inkscape:cx="11"
     inkscape:cy="11"
     inkscape:window-x="0"
     inkscape:window-y="24"
     inkscape:window-maximized="1"
     inkscape:current-layer="svg2" />
  <g
     style="fill:#d68b85;stroke:#d68b85;stroke-width:1.00066948"
     id="g4"
     transform="matrix(0.99930342,0,0,0.99935844,0.12154067,0.12178516)">
    <path
       style="stroke-width:0.31020755"
       d="m 110.79536,199.20048 c 0.76595,-1.06581 0.51063,-2.60057 -0.55318,-3.41058 L 71.349225,167.86575 c -1.106364,-0.76738 -2.638253,-0.51159 -3.404197,0.55422 -0.808497,1.10844 -0.553182,2.6432 0.553182,3.41058 l 38.89296,27.92415 c 1.10636,0.81001 2.59569,0.55422 3.40419,-0.55422 z"
       transform="matrix(0.0918,0,0,0.09163,-3.36225,-0.27549)"
       id="path6"
       inkscape:connector-curvature="0" />
    <path
       style="stroke-width:0.30120155"
       d="m 104.92312,182.31809 c 0.97871,-0.89527 1.10637,-2.3874 0.21276,-3.32532 L 74.115136,146.03802 c -0.893602,-0.93791 -2.382939,-0.93791 -3.361645,0 -0.978707,0.89527 -1.106364,2.3874 -0.212763,3.32531 l 31.020752,32.95476 c 0.8936,0.93791 2.38294,0.93791 3.36164,0 z"
       transform="matrix(0.0918,0,0,0.09163,-3.36225,-0.27549)"
       id="path8"
       inkscape:connector-curvature="0" />
    <path
       style="stroke-width:0.31020755"
       d="m 195.81519,99.654087 c 0.93616,-0.980542 0.93616,-2.515305 0,-3.453215 L 161.94343,62.350835 c -0.97871,-0.980542 -2.5106,-0.980542 -3.44675,0 -0.93616,0.937911 -0.93616,2.472673 0,3.410583 l 33.87176,33.892669 c 0.93616,0.937913 2.46804,0.937913 3.44675,0 z"
       transform="matrix(0.0918,0,0,0.09163,-3.36225,-0.27549)"
       id="path10"
       inkscape:connector-curvature="0" />
    <path
       style="stroke-width:0.30420354"
       d="m 193.85778,116.92016 c 0.9787,-0.93791 1.06381,-2.43004 0.17021,-3.36795 L 162.45406,80.000603 c -0.8936,-0.937911 -2.38294,-0.937911 -3.4042,-0.04263 -0.97871,0.937911 -1.02126,2.430041 -0.17021,3.367951 l 31.61648,33.551606 c 0.85105,0.93791 2.38294,0.98054 3.36165,0.0426 z"
       transform="matrix(0.0918,0,0,0.09163,-3.36225,-0.27549)"
       id="path12"
       inkscape:connector-curvature="0" />
    <path
       style="stroke-width:0.24916671"
       d="m 176.9219,119.39284 c 1.10636,-0.72475 1.61699,-1.91846 1.19146,-2.64321 L 161.39025,90.786571 c -0.46808,-0.767381 -1.78721,-0.767381 -2.89357,0 -1.14892,0.724749 -1.7021,1.875821 -1.23402,2.60057 l 16.72312,26.005699 c 0.46807,0.72475 1.7872,0.72475 2.93612,0 z"
       transform="matrix(0.0918,0,0,0.09163,-3.36225,-0.27549)"
       id="path14"
       inkscape:connector-curvature="0" />
    <path
       style="stroke-width:0.29519749"
       d="m 166.15612,140.87951 c 0.97871,-0.98054 1.06381,-2.43004 0.17021,-3.28269 l -30.59522,-30.60998 c -0.85105,-0.85264 -2.34039,-0.76738 -3.27654,0.17053 -0.93616,0.93791 -1.02126,2.43004 -0.12766,3.28269 l 30.55267,30.60998 c 0.8936,0.85264 2.34039,0.76738 3.27654,-0.17053 z"
       transform="matrix(0.0918,0,0,0.09163,-3.36225,-0.27549)"
       id="path16"
       inkscape:connector-curvature="0" />
    <path
       style="stroke-width:0.23215531"
       d="m 100.1998,159.76561 c 1.14892,-0.72475 1.74465,-1.83319 1.36168,-2.47267 L 87.689373,134.3994 c -0.382973,-0.63948 -1.659547,-0.55422 -2.808463,0.1279 -1.148917,0.68211 -1.744651,1.79055 -1.361679,2.43004 l 13.872104,22.89354 c 0.382972,0.63948 1.659546,0.59685 2.808465,-0.0853 z"
       transform="matrix(0.0918,0,0,0.09163,-3.36225,-0.27549)"
       id="path18"
       inkscape:connector-curvature="0" />
    <g
       style="stroke-width:0.31020755"
       id="g20">
      <path
         d="m 231.68692,47.131108 c -5.02119,2.557938 -45.44603,-10.658072 -45.44603,-10.658072 0,0 10.34025,34.787947 12.51042,44.508109 2.21273,9.720162 2.21273,24.129875 2.21273,24.129875 -0.29787,6.60801 -2.80846,8.48383 -7.82965,14.11129 -5.0212,5.62746 -11.61683,4.73218 -14.72316,4.0927 -3.14888,-0.63949 -37.65893,-8.78225 -47.95663,-11.59598 -10.3828,-2.81374 -21.6592,-0.29843 -25.74424,2.5153 -4.08504,2.81373 -6.255213,10.61544 -6.255213,10.61544 -5.361611,22.93617 17.233753,68.97904 17.233753,68.97904 -1.87231,5.03061 -8.12753,10.06122 -8.12753,10.06122 0,0 -23.53151,-61.47576 -13.829547,-80.57502 9.744517,-19.1419 25.744247,-18.80084 32.637737,-18.80084 6.8935,0 50.46723,12.83232 57.6586,12.53389 7.23392,-0.29843 11.95724,3.11216 8.17007,-17.564502 -3.74461,-20.67666 -12.55298,-48.302382 -13.48913,-54.867754 -0.93615,-6.565373 2.80846,-10.359646 2.80846,-10.359646 0,0 4.72333,-5.925889 10.68067,-5.03061 5.95735,0.980542 31.65904,10.06122 40.76527,13.812861 1.74465,0.724749 0.42552,3.240054 -1.27658,4.092699 z"
         transform="matrix(0.0918,0,0,0.09163,-3.36225,-0.27549)"
         id="path22"
         inkscape:connector-curvature="0"
         style="stroke-width:0.31020755" />
      <path
         d="m 247.68665,62.478732 c -20.38263,12.235467 -35.44621,6.608005 -43.57373,5.96852 -8.12752,-0.639484 -33.23347,-11.93704 -39.19082,-12.832318 -5.95735,-0.980543 -10.68067,4.987978 -10.68067,4.987978 0,0 -3.74462,3.751641 -2.80846,10.359645 0.93615,6.565373 9.70196,34.148463 13.48913,54.867753 3.74462,20.67666 -0.93615,17.22345 -8.17007,17.5645 -7.19137,0.29843 -50.7651,-12.57652 -57.658596,-12.57652 -6.8935,0 -22.893227,-0.29843 -32.637742,18.84347 -9.701963,19.1419 2.510595,54.5267 2.510595,54.5267 0,0 16.935882,14.45234 15.361441,9.08067 0,0 -18.467771,-39.17907 -13.148713,-62.02997 0,0 2.170176,-7.84435 6.255213,-10.70071 4.085037,-2.81373 15.403993,-5.32904 25.701692,-2.47267 10.34025,2.81373 44.8503,10.9565 47.99918,11.59598 3.10633,0.59685 9.70196,1.5774 14.72316,-4.0927 5.02119,-5.62746 7.53178,-7.50328 7.82965,-14.11129 0,0 0,-14.40971 -2.17018,-24.12987 -2.21273,-9.720163 -12.55298,-44.50811 -12.55298,-44.50811 0,0 38.04191,12.363364 42.04184,12.491261 7.7871,0.341058 22.55281,4.433758 34.4675,-2.472673 11.91469,-6.906431 12.21256,-10.359646 12.21256,-10.359646 z"
         transform="matrix(0.0918,0,0,0.09163,-3.36225,-0.27549)"
         id="path24"
         inkscape:connector-curvature="0"
         style="stroke-width:0.31020755" />
    </g>
    <path
       style="stroke-width:0.30620486"
       d="m 144.07139,146.37907 c 0.93616,-0.98054 0.97871,-2.5153 0.0426,-3.45321 l -33.02071,-32.99739 c -0.93615,-0.89528 -2.46804,-0.89528 -3.4042,0.0426 -0.93615,0.98054 -0.93615,2.47267 -0.0426,3.41058 l 33.02071,33.04003 c 0.93616,0.89527 2.42549,0.89527 3.4042,-0.0426 z"
       transform="matrix(0.0918,0,0,0.09163,-3.36225,-0.27549)"
       id="path26"
       inkscape:connector-curvature="0" />
    <path
       style="stroke-width:0.3242169"
       d="m 158.49668,147.61541 c 0.93615,-0.98054 0.8936,-2.55794 -0.17021,-3.62374 l -36.9781,-36.9622 c -1.06381,-1.0658 -2.6808,-1.15107 -3.61696,-0.17053 -0.93615,0.93791 -0.8936,2.55794 0.17021,3.58112 l 36.9781,37.00482 c 1.02126,1.02318 2.6808,1.10844 3.61696,0.17053 z"
       transform="matrix(0.0918,0,0,0.09163,-3.36225,-0.27549)"
       id="path28"
       inkscape:connector-curvature="0" />
    <path
       style="stroke-width:0.24916671"
       d="m 124.3696,141.2632 c 0.8936,-1.06581 1.06381,-2.34477 0.38297,-2.899 L 101.0934,118.49756 c -0.68084,-0.55422 -1.914861,-0.17053 -2.765911,0.85264 -0.893601,1.06581 -1.021259,2.34478 -0.382972,2.899 l 23.659173,19.86665 c 0.68084,0.55422 1.91486,0.17052 2.76591,-0.85265 z"
       transform="matrix(0.0918,0,0,0.09163,-3.36225,-0.27549)"
       id="path30"
       inkscape:connector-curvature="0" />
    <path
       style="stroke-width:0.31020755"
       d="m 232.79329,72.369423 c 0.9787,-0.980543 0.9787,-2.515305 0,-3.453215 L 198.92152,35.066171 c -0.93615,-0.980543 -2.51059,-0.980543 -3.44675,0 -0.93615,0.93791 -0.93615,2.472673 0,3.410583 l 33.87177,33.892669 c 0.93615,0.93791 2.51059,0.93791 3.44675,0 z"
       transform="matrix(0.0918,0,0,0.09163,-3.36225,-0.27549)"
       id="path32"
       inkscape:connector-curvature="0" />
    <path
       style="stroke-width:0.29619819"
       d="m 213.94254,74.245244 c 1.02126,-0.810014 1.27658,-2.259512 0.51063,-3.240054 l -26.8506,-34.574786 c -0.76595,-0.980542 -2.21273,-1.065807 -3.27654,-0.255794 -1.10637,0.852646 -1.31913,2.259512 -0.55319,3.240054 l 26.85061,34.574786 c 0.76594,0.980543 2.25528,1.108439 3.31909,0.255794 z"
       transform="matrix(0.0918,0,0,0.09163,-3.36225,-0.27549)"
       id="path34"
       inkscape:connector-curvature="0" />
  </g>
</svg>

<svg width="22" xmlns="http://www.w3.org/2000/svg" height="22" viewBox="0 0 22 22" xmlns:xlink="http://www.w3.org/1999/xlink">
<g style="fill:#d68b85;stroke:#d68b85">
<path style="stroke-width:.31" d="M 110.795362 199.20048 C 111.561307 198.134673 111.305992 196.59991 110.24218 195.789897 L 71.349225 167.865748 C 70.242861 167.098367 68.710972 167.354161 67.945028 168.419968 C 67.136531 169.528407 67.391846 171.06317 68.49821 171.830551 L 107.391165 199.754699 C 108.497529 200.564713 109.986865 200.308919 110.795362 199.20048 Z " transform="matrix(.0918 0 0 .09163 -3.36225 -.27549)"/>
<path style="stroke-width:.301" d="M 104.923122 182.318094 C 105.901829 181.422816 106.029486 179.930686 105.135884 178.992775 L 74.115136 146.038017 C 73.221534 145.100106 71.732197 145.100106 70.753491 146.038017 C 69.774784 146.933295 69.647127 148.425425 70.540728 149.363335 L 101.561477 182.318094 C 102.455079 183.256004 103.944415 183.256004 104.923122 182.318094 Z " transform="matrix(.0918 0 0 .09163 -3.36225 -.27549)"/>
<path style="stroke-width:.31" d="M 195.815192 99.654087 C 196.751346 98.673545 196.751346 97.138782 195.815192 96.200872 L 161.943428 62.350835 C 160.964721 61.370293 159.432832 61.370293 158.496678 62.350835 C 157.560524 63.288746 157.560524 64.823508 158.496678 65.761418 L 192.368442 99.654087 C 193.304596 100.591998 194.836485 100.591998 195.815192 99.654087 Z " transform="matrix(.0918 0 0 .09163 -3.36225 -.27549)"/>
<path style="stroke-width:.304" d="M 193.857778 116.920164 C 194.836485 115.982254 194.92159 114.490124 194.027988 113.552213 L 162.454058 80.000603 C 161.560456 79.062692 160.071119 79.062692 159.04986 79.95797 C 158.071153 80.895881 158.028601 82.388011 158.87965 83.325921 L 190.496133 116.877532 C 191.347183 117.815442 192.879072 117.858074 193.857778 116.920164 Z " transform="matrix(.0918 0 0 .09163 -3.36225 -.27549)"/>
<path style="stroke-width:.249" d="M 176.921896 119.392837 C 178.028261 118.668088 178.53889 117.474384 178.113365 116.749635 L 161.390246 90.786571 C 160.922169 90.01919 159.603042 90.01919 158.496678 90.786571 C 157.347761 91.51132 156.794579 92.662392 157.262657 93.387141 L 173.985776 119.392837 C 174.453853 120.117586 175.77298 120.117586 176.921896 119.392837 Z " transform="matrix(.0918 0 0 .09163 -3.36225 -.27549)"/>
<path style="stroke-width:.295" d="M 166.156122 140.87951 C 167.134829 139.898967 167.219934 138.449469 166.326332 137.596824 L 135.731108 106.986841 C 134.880059 106.134195 133.390722 106.21946 132.454568 107.15737 C 131.518414 108.09528 131.433309 109.58741 132.326911 110.440056 L 162.879582 141.050039 C 163.773184 141.902685 165.219968 141.81742 166.156122 140.87951 Z " transform="matrix(.0918 0 0 .09163 -3.36225 -.27549)"/>
<path style="stroke-width:.232" d="M 100.199798 159.765613 C 101.348715 159.040864 101.944449 157.932425 101.561477 157.292941 L 87.689373 134.399402 C 87.3064 133.759918 86.029826 133.845182 84.88091 134.527299 C 83.731993 135.209415 83.136259 136.317855 83.519231 136.957339 L 97.391335 159.850878 C 97.774307 160.490362 99.050881 160.44773 100.199798 159.765613 Z " transform="matrix(.0918 0 0 .09163 -3.36225 -.27549)"/>
<g style="stroke-width:.31">
<path d="M 231.686922 47.131108 C 226.665731 49.689046 186.240887 36.473036 186.240887 36.473036 C 186.240887 36.473036 196.581136 71.260983 198.751312 80.981145 C 200.96404 90.701307 200.96404 105.11102 200.96404 105.11102 C 200.666173 111.719025 198.155577 113.594845 193.134386 119.222307 C 188.113195 124.84977 181.517563 123.954491 178.411233 123.315007 C 175.26235 122.675523 140.752299 114.532756 130.454602 111.719025 C 120.0718 108.905294 108.795396 111.420599 104.71036 114.23433 C 100.625323 117.048061 98.455147 124.84977 98.455147 124.84977 C 93.093536 147.78594 115.688896 193.828811 115.688896 193.828811 C 113.816588 198.859421 107.561375 203.890031 107.561375 203.890031 C 107.561375 203.890031 84.02986 142.414272 93.731823 123.315007 C 103.476338 104.17311 119.476066 104.514168 126.369565 104.514168 C 133.263065 104.514168 176.836791 117.346487 184.028158 117.048061 C 191.262078 116.749635 195.985402 120.160218 192.198232 99.483558 C 188.453615 78.806898 179.645254 51.181176 178.7091 44.615804 C 177.772946 38.050431 181.517563 34.256158 181.517563 34.256158 C 181.517563 34.256158 186.240887 28.330269 192.198232 29.225548 C 198.155577 30.20609 223.857268 39.286768 232.963496 43.038409 C 234.708147 43.763158 233.38902 46.278463 231.686922 47.131108 Z " transform="matrix(.0918 0 0 .09163 -3.36225 -.27549)"/>
<path d="M 247.686649 62.478732 C 227.304018 74.714199 212.240444 69.086737 204.112923 68.447252 C 195.985402 67.807768 170.879446 56.510212 164.922101 55.614934 C 158.964755 54.634391 154.241431 60.602912 154.241431 60.602912 C 154.241431 60.602912 150.496814 64.354553 151.432969 70.962557 C 152.369123 77.52793 161.134931 105.11102 164.922101 125.830312 C 168.666718 146.506972 163.985946 143.053756 156.752027 143.394815 C 149.56066 143.693241 105.986934 130.81829 99.093434 130.81829 C 92.199934 130.81829 76.200207 130.519864 66.455692 149.661761 C 56.753729 168.803658 68.966287 204.188457 68.966287 204.188457 C 68.966287 204.188457 85.902169 218.640803 84.327728 213.269135 C 84.327728 213.269135 65.859957 174.090062 71.179015 151.239156 C 71.179015 151.239156 73.349191 143.394815 77.434228 140.538451 C 81.519265 137.72472 92.838221 135.209415 103.135918 138.065779 C 113.476168 140.87951 147.986219 149.022277 151.135101 149.661761 C 154.241431 150.258613 160.837064 151.239156 165.858255 145.569061 C 170.879446 139.941599 173.390042 138.065779 173.687909 131.457774 C 173.687909 131.457774 173.687909 117.048061 171.517733 107.327899 C 169.305005 97.607737 158.964755 62.81979 158.964755 62.81979 C 158.964755 62.81979 197.006661 75.183154 201.006593 75.311051 C 208.793694 75.652109 223.5594 79.744809 235.474091 72.838378 C 247.388782 65.931947 247.686649 62.478732 247.686649 62.478732 Z " transform="matrix(.0918 0 0 .09163 -3.36225 -.27549)"/>
</g>
<path style="stroke-width:.306" d="M 144.071392 146.379075 C 145.007546 145.398532 145.050098 143.86377 144.113944 142.92586 L 111.09323 109.928469 C 110.157075 109.033191 108.625187 109.033191 107.689032 109.971101 C 106.752878 110.951644 106.752878 112.443774 107.64648 113.381684 L 140.667194 146.421707 C 141.603349 147.316985 143.092685 147.316985 144.071392 146.379075 Z " transform="matrix(.0918 0 0 .09163 -3.36225 -.27549)"/>
<path style="stroke-width:.324" d="M 158.496678 147.615411 C 159.432832 146.634869 159.39028 145.057474 158.326468 143.991667 L 121.348374 107.029473 C 120.284563 105.963666 118.667569 105.878401 117.731415 106.858944 C 116.79526 107.796854 116.837813 109.416881 117.901624 110.440056 L 154.879718 147.444882 C 155.900978 148.468057 157.560524 148.553322 158.496678 147.615411 Z " transform="matrix(.0918 0 0 .09163 -3.36225 -.27549)"/>
<path style="stroke-width:.249" d="M 124.369599 141.2632 C 125.263201 140.197393 125.433411 138.918425 124.752572 138.364205 L 101.0934 118.497559 C 100.41256 117.943339 99.178539 118.327029 98.327489 119.350204 C 97.433888 120.416012 97.30623 121.69498 97.944517 122.2492 L 121.603689 142.115846 C 122.284528 142.670066 123.51855 142.286375 124.369599 141.2632 Z " transform="matrix(.0918 0 0 .09163 -3.36225 -.27549)"/>
<path style="stroke-width:.31" d="M 232.793286 72.369423 C 233.771993 71.38888 233.771993 69.854118 232.793286 68.916208 L 198.921522 35.066171 C 197.985368 34.085628 196.410926 34.085628 195.474772 35.066171 C 194.538618 36.004081 194.538618 37.538844 195.474772 38.476754 L 229.346536 72.369423 C 230.28269 73.307333 231.857132 73.307333 232.793286 72.369423 Z " transform="matrix(.0918 0 0 .09163 -3.36225 -.27549)"/>
<path style="stroke-width:.296" d="M 213.942543 74.245244 C 214.963802 73.43523 215.219117 71.985732 214.453172 71.00519 L 187.602566 36.430404 C 186.836621 35.449862 185.389837 35.364597 184.326026 36.17461 C 183.219662 37.027256 183.006899 38.434122 183.772844 39.414664 L 210.62345 73.98945 C 211.389395 74.969993 212.878731 75.097889 213.942543 74.245244 Z " transform="matrix(.0918 0 0 .09163 -3.36225 -.27549)"/>
</g>
</svg>
